file/us-open.svg

<svg clip-rule="evenodd" fill-rule="evenodd" stroke-linejoin="round" stroke-miterlimit="1.41421" viewBox="0 0 560 400" xmlns="http://www.w3.org/2000/svg"><g fill-rule="nonzero" transform="matrix(1.71626 0 0 1.71626 -95.1332 -83.4227)"><path d="m188.156 153.755c42.331 6.074 45.053 10.091 55.619 10.091 8.2 0 14.956-2.53 20.048-6.762-15.934-4.207-50.008-5.102-75.667-3.329z" fill="#fdd201"/><path d="m270.483 121.357c-40.93-2.909-80.198 3.88-115.495 18.583 43.089 2.578 75.285 6.282 111.99 14.095 4.443-5.004 7.132-11.582 7.132-18.799 0-5.043-1.318-9.777-3.627-13.879z" fill="#fdd201"/><path d="m244.604 106.874c-21.762 0-50.024 8.083-71.871 16.166 29.819-5.775 66.85-7.266 95.288-5.358-4.31-5.192-11.074-10.808-23.417-10.808z" fill="#fdd201"/><g fill="#00288b"><path d="m159.715 204.456c1.793.931 5.283 2.155 8.207 2.155 2.551 0 3.936-.907 4.113-2.264.175-1.358-.694-2.319-3.333-3.564-3.341-1.584-5.965-3.902-5.517-7.352.742-5.713 6.772-9.501 14.61-9.501 3.547 0 5.673.559 7.126 1.149l-1.917 6.211c-1.233-.568-3.678-1.422-6.353-1.422-2.365 0-4.107.962-4.298 2.431-.146 1.132.974 2.092 3.323 3.168 3.099 1.527 6.297 3.732 5.798 7.579-.823 6.333-7.175 9.728-15.199 9.728-3.859 0-6.61-.791-8.574-1.774z"/><path d="m209.624 183.929c-7.925 0-16.019 6.417-18.482 14.342-2.462 7.925 1.507 14.503 9.431 14.503 8.763 0 16.478-6.571 18.941-14.496s-1.966-14.349-9.89-14.349zm1.724 11.425c-.56 4.751-3.817 11.254-8.285 11.254-2.828 0-4.158-2.148-3.778-5.373.452-4.298 3.634-11.14 8.328-11.14 3.281 0 4.035 2.714 3.735 5.259z"/><path d="m214.551 223.406 8.639-28.166c1.009-3.279 2.285-7.86 2.959-10.689h7.334l-1.034 4.269h.113c2.567-3.09 6.103-4.892 9.441-4.892 5.995 0 8.311 4.809 7.644 10.463-1.135 9.615-8.603 18.382-18.218 18.382-2.263 0-4.12-.567-5.014-1.131h-.095l-3.624 11.764zm13.74-18.164c.806.848 1.998 1.366 3.582 1.366 4.355 0 8.893-6.557 9.534-11.987.261-2.205-.371-4.528-3.03-4.528-3.053 0-6.663 3.846-8.321 9.277z"/><path d="m270.663 211c-3.423 1.387-6.498 1.773-9.552 1.773-7.918 0-11.462-4.467-10.615-11.65.994-8.427 8.136-17.195 18.147-17.195 5.601 0 9.249 3.111 8.642 8.259-.835 7.069-7.979 9.614-19.031 9.331-.093.793.043 2.037.515 2.828.907 1.414 2.687 2.262 5.062 2.262 2.998 0 6.504-1.077 8.837-2.152zm-3.738-21.133c-3.79 0-6.306 3.111-7.179 5.713 6.329.056 9.604-.848 9.897-3.338.166-1.412-.851-2.375-2.718-2.375z"/><path d="m274.993 212.151 5.693-18.609c1.042-3.514 1.829-6.561 2.441-8.992h7.331l-1.034 4.267h.113c3.029-3.619 6.594-4.892 10.271-4.892 4.525 0 6.744 2.772 6.183 7.525-.146 1.244-.619 3.336-1.007 4.694l-4.933 16.007h-8.145s3.699-11.985 4.752-15.438c1.2-3.934 1.233-6.621-1.764-6.621-2.832 0-5.904 3.06-7.829 9.319-1.925 6.26-3.926 12.74-3.926 12.74z"/><path d="m162.159 184.549-5.692 18.61c-1.042 3.513-1.829 6.561-2.441 8.991h-7.331l1.034-4.267h-.113c-3.03 3.619-6.594 4.892-10.272 4.892-4.525 0-6.743-2.772-6.182-7.524.146-1.245.619-3.337 1.007-4.694l4.932-16.008h8.145s-3.698 11.985-4.752 15.439c-1.2 3.934-1.232 6.62 1.764 6.62 2.833 0 5.905-3.06 7.83-9.319 1.925-6.26 3.926-12.74 3.926-12.74z"/></g></g></svg>

<?xml version="1.0" encoding="UTF-8" standalone="no"?>
<!DOCTYPE svg PUBLIC "-//W3C//DTD SVG 1.1//EN" "http://www.w3.org/Graphics/SVG/1.1/DTD/svg11.dtd">
<svg width="100%" height="100%" viewBox="0 0 560 400" version="1.1" xmlns="http://www.w3.org/2000/svg" xmlns:xlink="http://www.w3.org/1999/xlink" xml:space="preserve" xmlns:serif="http://www.serif.com/" style="fill-rule:evenodd;clip-rule:evenodd;stroke-linejoin:round;stroke-miterlimit:1.41421;">
    <g transform="matrix(1.71626,0,0,1.71626,-95.1332,-83.4227)">
        <path d="M188.156,153.755C230.487,159.829 233.209,163.846 243.775,163.846C251.975,163.846 258.731,161.316 263.823,157.084C247.889,152.877 213.815,151.982 188.156,153.755Z" style="fill:rgb(253,210,1);fill-rule:nonzero;"/>
        <path d="M270.483,121.357C229.553,118.448 190.285,125.237 154.988,139.94C198.077,142.518 230.273,146.222 266.978,154.035C271.421,149.031 274.11,142.453 274.11,135.236C274.11,130.193 272.792,125.459 270.483,121.357Z" style="fill:rgb(253,210,1);fill-rule:nonzero;"/>
        <path d="M244.604,106.874C222.842,106.874 194.58,114.957 172.733,123.04C202.552,117.265 239.583,115.774 268.021,117.682C263.711,112.49 256.947,106.874 244.604,106.874Z" style="fill:rgb(253,210,1);fill-rule:nonzero;"/>
        <g>
            <path d="M159.715,204.456C161.508,205.387 164.998,206.611 167.922,206.611C170.473,206.611 171.858,205.704 172.035,204.347C172.21,202.989 171.341,202.028 168.702,200.783C165.361,199.199 162.737,196.881 163.185,193.431C163.927,187.718 169.957,183.93 177.795,183.93C181.342,183.93 183.468,184.489 184.921,185.079L183.004,191.29C181.771,190.722 179.326,189.868 176.651,189.868C174.286,189.868 172.544,190.83 172.353,192.299C172.207,193.431 173.327,194.391 175.676,195.467C178.775,196.994 181.973,199.199 181.474,203.046C180.651,209.379 174.299,212.774 166.275,212.774C162.416,212.774 159.665,211.983 157.701,211L159.715,204.456Z" style="fill:rgb(0,40,139);fill-rule:nonzero;"/>
            <path d="M209.624,183.929C201.699,183.929 193.605,190.346 191.142,198.271C188.68,206.196 192.649,212.774 200.573,212.774C209.336,212.774 217.051,206.203 219.514,198.278C221.977,190.353 217.548,183.929 209.624,183.929ZM211.348,195.354C210.788,200.105 207.531,206.608 203.063,206.608C200.235,206.608 198.905,204.46 199.285,201.235C199.737,196.937 202.919,190.095 207.613,190.095C210.894,190.095 211.648,192.809 211.348,195.354Z" style="fill:rgb(0,40,139);fill-rule:nonzero;"/>
            <path d="M214.551,223.406L223.19,195.24C224.199,191.961 225.475,187.38 226.149,184.551L233.483,184.551L232.449,188.82L232.562,188.82C235.129,185.73 238.665,183.928 242.003,183.928C247.998,183.928 250.314,188.737 249.647,194.391C248.512,204.006 241.044,212.773 231.429,212.773C229.166,212.773 227.309,212.206 226.415,211.642L226.32,211.642L222.696,223.406L214.551,223.406L214.551,223.406ZM228.291,205.242C229.097,206.09 230.289,206.608 231.873,206.608C236.228,206.608 240.766,200.051 241.407,194.621C241.668,192.416 241.036,190.093 238.377,190.093C235.324,190.093 231.714,193.939 230.056,199.37L228.291,205.242Z" style="fill:rgb(0,40,139);fill-rule:nonzero;"/>
            <path d="M270.663,211C267.24,212.387 264.165,212.773 261.111,212.773C253.193,212.773 249.649,208.306 250.496,201.123C251.49,192.696 258.632,183.928 268.643,183.928C274.244,183.928 277.892,187.039 277.285,192.187C276.45,199.256 269.306,201.801 258.254,201.518C258.161,202.311 258.297,203.555 258.769,204.346C259.676,205.76 261.456,206.608 263.831,206.608C266.829,206.608 270.335,205.531 272.668,204.456L270.663,211ZM266.925,189.867C263.135,189.867 260.619,192.978 259.746,195.58C266.075,195.636 269.35,194.732 269.643,192.242C269.809,190.83 268.792,189.867 266.925,189.867Z" style="fill:rgb(0,40,139);fill-rule:nonzero;"/>
            <path d="M274.993,212.151L280.686,193.542C281.728,190.028 282.515,186.981 283.127,184.55L290.458,184.55L289.424,188.817L289.537,188.817C292.566,185.198 296.131,183.925 299.808,183.925C304.333,183.925 306.552,186.697 305.991,191.45C305.845,192.694 305.372,194.786 304.984,196.144L300.051,212.151L291.906,212.151C291.906,212.151 295.605,200.166 296.658,196.713C297.858,192.779 297.891,190.092 294.894,190.092C292.062,190.092 288.99,193.152 287.065,199.411C285.14,205.671 283.139,212.151 283.139,212.151L274.993,212.151Z" style="fill:rgb(0,40,139);fill-rule:nonzero;"/>
            <path d="M162.159,184.549L156.467,203.159C155.425,206.672 154.638,209.72 154.026,212.15L146.695,212.15L147.729,207.883L147.616,207.883C144.586,211.502 141.022,212.775 137.344,212.775C132.819,212.775 130.601,210.003 131.162,205.251C131.308,204.006 131.781,201.914 132.169,200.557L137.101,184.549L145.246,184.549C145.246,184.549 141.548,196.534 140.494,199.988C139.294,203.922 139.262,206.608 142.258,206.608C145.091,206.608 148.163,203.548 150.088,197.289C152.013,191.029 154.014,184.549 154.014,184.549L162.159,184.549Z" style="fill:rgb(0,40,139);fill-rule:nonzero;"/>
        </g>
    </g>
</svg>
